img/decorate-star.svg

<svg width="56" height="58" viewBox="0 0 56 58" fill="none" xmlns="http://www.w3.org/2000/svg">
<path d="M1.07646 35.1596C6.54555 36.6885 11.9783 38.3604 17.411 40.0147L17.4507 40.173C19.4618 45.842 21.7869 51.4174 23.97 57.0225C24.3755 58.0642 25.818 58.425 26.4494 57.347C28.2776 54.2277 30.162 51.1424 31.9747 48.0143C33.3004 45.7265 35.0525 43.3672 35.5341 40.7406C35.6432 40.7967 35.7633 40.844 35.9043 40.8715C41.5795 41.9692 47.2844 42.3861 53.0587 42.0132C54.11 41.945 54.7238 40.9177 54.2324 39.9695C51.5424 34.7736 48.4084 29.9054 44.297 25.7136C43.7295 25.1351 42.6991 25.8907 43.1564 26.5925C45.875 30.7743 48.5451 34.9716 50.8614 39.3844C46.0789 39.5043 41.3635 39.1435 36.6361 38.224C35.7644 38.0546 35.1451 38.642 34.9666 39.3096C34.7869 39.2766 34.6007 39.2964 34.4475 39.4064C32.086 41.0914 30.8496 44.0579 29.428 46.5283C28.1013 48.8337 26.8108 51.1578 25.5105 53.4775C23.733 48.7886 21.9908 44.0766 20.0469 39.4592C19.8927 39.0929 19.6315 38.8498 19.3318 38.7101C19.3207 38.1789 19.0342 37.6587 18.3808 37.4596C13.7238 36.0429 9.06355 34.6218 4.42865 33.1325C9.04592 29.1552 13.8516 25.5135 18.7565 21.8629C19.2447 21.4988 19.3152 20.9686 19.1444 20.5463C19.205 20.4044 19.2491 20.2493 19.2568 20.0656C19.453 14.6089 19.3494 9.13359 19.3472 3.66924C23.9347 6.87218 28.5068 10.0542 33.0194 13.3726C32.8353 14.3362 33.9219 15.4988 35.1175 14.9312C40.5514 12.3541 46.1251 10.3622 51.9336 8.94991C49.0784 14.1833 45.6612 19.0504 42.9074 24.3354C42.4919 25.1329 43.4815 25.9171 44.1548 25.2957C49.29 20.5518 52.8075 13.8126 55.8335 7.60802C56.3889 6.46962 55.4787 5.26302 54.2269 5.5204C47.399 6.92718 40.8302 9.12041 34.5533 12.1287C29.9625 7.46834 24.4934 3.21389 18.7202 0.156138C17.8816 -0.288225 16.8171 0.259521 16.8149 1.24724C16.8038 7.51452 16.5691 13.8005 16.7377 20.0656C16.7421 20.2229 16.7851 20.3516 16.8303 20.4781C10.8146 23.6205 5.24413 27.9685 0.424096 32.697C-0.372633 33.479 0.0141513 34.8627 1.07646 35.1596Z" fill="#FEB9CC"/>
</svg>

<svg width="56" height="58" viewBox="0 0 56 58" fill="none" xmlns="http://www.w3.org/2000/svg"><path d="M1.076 35.16c5.47 1.529 10.902 3.2 16.335 4.855l.04.158c2.01 5.669 4.336 11.244 6.519 16.85.405 1.041 1.848 1.402 2.48.324 1.828-3.12 3.712-6.205 5.525-9.333 1.325-2.288 3.078-4.647 3.56-7.273.108.056.228.103.37.13 5.675 1.098 11.38 1.515 17.154 1.142 1.051-.068 1.665-1.095 1.173-2.044-2.69-5.195-5.824-10.064-9.935-14.255-.567-.579-1.598.177-1.14.879 2.718 4.181 5.388 8.379 7.704 12.791-4.782.12-9.497-.24-14.225-1.16-.872-.17-1.49.418-1.67 1.086a.666.666 0 00-.519.096c-2.361 1.685-3.597 4.652-5.019 7.122-1.327 2.306-2.617 4.63-3.918 6.95-1.777-4.69-3.52-9.401-5.463-14.019a1.412 1.412 0 00-.715-.749c-.011-.531-.298-1.051-.951-1.25-4.657-1.417-9.317-2.838-13.952-4.328 4.617-3.977 9.423-7.618 14.327-11.27.489-.363.56-.893.388-1.316a1.34 1.34 0 00.113-.48c.196-5.457.092-10.932.09-16.397 4.588 3.203 9.16 6.385 13.672 9.704-.184.963.903 2.126 2.099 1.558A87.054 87.054 0 0151.933 8.95c-2.856 5.233-6.273 10.1-9.027 15.385-.415.798.575 1.582 1.248.96 5.135-4.743 8.652-11.482 11.678-17.687.556-1.138-.354-2.345-1.606-2.088a85.092 85.092 0 00-19.674 6.609C29.963 7.469 24.493 3.214 18.72.156c-.838-.444-1.903.104-1.905 1.091-.011 6.268-.246 12.553-.077 18.819.004.157.047.286.092.412C10.815 23.62 5.244 27.968.424 32.697c-.797.782-.41 2.166.652 2.463z" fill="#FEB9CC"/></svg>
